source/assets/images/flags/Philippines.svg

<?xml version="1.0" encoding="UTF-8" standalone="no"?>
<svg width="1200px" height="600px" viewBox="0 0 1200 600" version="1.1" xmlns="http://www.w3.org/2000/svg" xmlns:xlink="http://www.w3.org/1999/xlink" xmlns:sketch="http://www.bohemiancoding.com/sketch/ns">
    <!-- Generator: Sketch 3.3.3 (12072) - http://www.bohemiancoding.com/sketch -->
    <title>Philippines</title>
    <desc>Created with Sketch.</desc>
    <defs></defs>
    <g id="Page-1" stroke="none" stroke-width="1" fill="none" fill-rule="evenodd" sketch:type="MSPage">
        <g id="Philippines" sketch:type="MSLayerGroup">
            <path d="M0,600 L1200,600 L1200,0 L0,0 L0,600 Z" id="Fill-1" fill="#223A82" sketch:type="MSShapeGroup"></path>
            <path d="M0,600 L1200,600 L1200,300 L0,300 L0,600 Z" id="Fill-2" fill="#BC242C" sketch:type="MSShapeGroup"></path>
            <path d="M0,0 L0,600 L519.616,300 L0,0" id="Fill-3" fill="#FFFFFF" sketch:type="MSShapeGroup"></path>
            <path d="M190.590667,359.873333 L194.458667,418.874667 L186.666667,426.666667 L178.874667,418.874667 L182.742667,359.873333 C181.428,359.789333 180.124,359.661333 178.833333,359.493333 L171.745333,413.333333 L165.386667,406.974667 L174.958667,358.858667 C167.085333,357.301333 159.766667,354.204 153.329333,349.893333 L126.070667,390.689333 L117.078667,390.689333 L150.138667,347.604 C149.1,346.805333 148.088,345.974667 147.105333,345.110667 L108.118667,389.566667 L97.1,389.566667 L97.1,378.548 L141.556,339.561333 C140.692,338.578667 139.861333,337.566667 139.062667,336.528 L95.9773333,369.588 L95.9773333,360.596 L136.773333,333.337333 C132.462667,326.9 129.365333,319.581333 127.808,311.708 L79.692,321.278667 L73.3333333,314.92 L127.173333,307.833333 C127.005333,306.542667 126.877333,305.238667 126.793333,303.924 L67.792,307.792 L60,300 L67.792,292.208 L126.793333,296.076 C126.877333,294.761333 127.005333,293.457333 127.173333,292.166667 L73.3333333,285.08 L79.692,278.72 L127.808,288.292 C129.365333,280.418667 132.462667,273.1 136.773333,266.662667 L95.9773333,239.404 L95.9773333,230.412 L139.062667,263.472 C139.861333,262.433333 140.692,261.421333 141.556,260.438667 L97.1,221.452 L97.1,210.433333 L108.118667,210.433333 L147.105333,254.889333 C148.088,254.025333 149.1,253.194667 150.138667,252.396 L117.078667,209.310667 L126.070667,209.310667 L153.329333,250.106667 C159.766667,245.796 167.085333,242.698667 174.958667,241.141333 L165.386667,193.025333 L171.745333,186.666667 L178.833333,240.506667 C180.124,240.338667 181.428,240.210667 182.742667,240.126667 L178.874667,181.125333 L186.666667,173.333333 L194.458667,181.125333 L190.590667,240.126667 C191.905333,240.210667 193.209333,240.338667 194.5,240.506667 L201.586667,186.666667 L207.945333,193.025333 L198.374667,241.141333 C206.248,242.698667 213.566667,245.796 220.004,250.106667 L247.262667,209.310667 L256.254667,209.310667 L223.194667,252.396 C224.233333,253.194667 225.245333,254.025333 226.228,254.889333 L265.214667,210.433333 L276.233333,210.433333 L276.233333,221.452 L231.777333,260.438667 C232.641333,261.421333 233.472,262.433333 234.270667,263.472 L277.356,230.412 L277.356,239.404 L236.56,266.662667 C240.870667,273.1 243.968,280.418667 245.525333,288.292 L293.641333,278.72 L300,285.08 L246.16,292.166667 C246.328,293.457333 246.456,294.761333 246.54,296.076 L305.541333,292.208 L313.333333,300 L305.541333,307.792 L246.54,303.924 C246.456,305.238667 246.328,306.542667 246.16,307.833333 L300,314.92 L293.641333,321.278667 L245.525333,311.708 C243.968,319.581333 240.870667,326.9 236.56,333.337333 L277.356,360.596 L277.356,369.588 L234.270667,336.528 C233.472,337.566667 232.641333,338.578667 231.777333,339.561333 L276.233333,378.548 L276.233333,389.566667 L265.214667,389.566667 L226.228,345.110667 C225.245333,345.974667 224.233333,346.805333 223.194667,347.604 L256.254667,390.689333 L247.262667,390.689333 L220.004,349.893333 C213.566667,354.204 206.248,357.301333 198.374667,358.858667 L207.945333,406.974667 L201.586667,413.333333 L194.5,359.493333 C193.209333,359.661333 191.905333,359.789333 190.590667,359.873333" id="Fill-4" fill="#F7CD2B" sketch:type="MSShapeGroup"></path>
            <path d="M459.614667,300 L437.068,307.837333 L436.581333,331.701333 L422.161333,312.681333 L399.314667,319.593333 L412.948,300 L399.314667,280.406667 L422.161333,287.318667 L436.581333,268.298667 L437.068,292.162667 L459.614667,300" id="Fill-5" fill="#F7CD2B" sketch:type="MSShapeGroup"></path>
            <path d="M30,548.038667 L34.4866667,524.594667 L14.0613333,512.241333 L37.7453333,509.262667 L43.1826667,486.02 L53.3333333,507.624 L77.1186667,505.613333 L59.708,521.942667 L68.9706667,543.942667 L48.06,532.432 L30,548.038667" id="Fill-6" fill="#F7CD2B" sketch:type="MSShapeGroup"></path>
            <path d="M30,51.9613333 L48.06,67.568 L68.9706667,56.0573333 L59.708,78.0573333 L77.1186667,94.3866667 L53.3333333,92.376 L43.1826667,113.98 L37.7453333,90.7373333 L14.0613333,87.7586667 L34.4866667,75.4053333 L30,51.9613333" id="Fill-7" fill="#F7CD2B" sketch:type="MSShapeGroup"></path>
        </g>
    </g>
</svg>

<svg width="1200" height="600" viewBox="0 0 1200 600" xmlns="http://www.w3.org/2000/svg"><title>Philippines</title><g fill="none" fill-rule="evenodd"><path d="M0 600h1200V0H0v600z" fill="#223A82"/><path d="M0 600h1200V300H0v300z" fill="#BC242C"/><path d="M0 0v600l519.616-300L0 0" fill="#FFF"/><path d="M190.59 359.873l3.87 59.002-7.793 7.792-7.792-7.792 3.868-59.002c-1.315-.084-2.62-.212-3.91-.38l-7.088 53.84-6.358-6.358 9.572-48.116c-7.875-1.56-15.193-4.656-21.63-8.967l-27.26 40.796h-8.99l33.06-43.086c-1.04-.8-2.052-1.63-3.035-2.493l-38.986 44.457H97.1v-11.02l44.456-38.986c-.864-.98-1.695-1.993-2.493-3.032l-43.086 33.06v-8.992l40.796-27.26c-4.31-6.436-7.408-13.755-8.965-21.628l-48.116 9.57-6.36-6.358 53.84-7.087c-.167-1.29-.295-2.594-.38-3.91l-59 3.87L60 300l7.792-7.792 59 3.868c.085-1.315.213-2.62.38-3.91l-53.84-7.086 6.36-6.36 48.116 9.572c1.557-7.873 4.655-15.192 8.965-21.63l-40.796-27.258v-8.992l43.086 33.06c.798-1.04 1.63-2.05 2.493-3.033L97.1 221.45v-11.02h11.02l38.985 44.457c.983-.865 1.995-1.695 3.034-2.494l-33.06-43.085h8.99l27.26 40.797c6.437-4.31 13.755-7.408 21.63-8.966l-9.573-48.115 6.358-6.358 7.088 53.84c1.29-.168 2.595-.296 3.91-.38l-3.868-59.002 7.792-7.792 7.792 7.792-3.87 59.002c1.315.084 2.62.212 3.91.38l7.087-53.84 6.358 6.358-9.57 48.116c7.873 1.56 15.192 4.656 21.63 8.967l27.258-40.796h8.992l-33.06 43.086c1.038.8 2.05 1.63 3.033 2.493l38.987-44.457h11.018v11.02l-44.456 38.986c.864.98 1.695 1.993 2.494 3.032l43.086-33.06v8.992l-40.796 27.26c4.31 6.436 7.408 13.755 8.965 21.628l48.116-9.572 6.36 6.36-53.84 7.087c.168 1.29.296 2.594.38 3.91l59-3.87 7.793 7.793-7.792 7.792-59-3.868c-.084 1.315-.212 2.62-.38 3.91L300 314.92l-6.36 6.36-48.115-9.572c-1.557 7.873-4.654 15.192-8.965 21.63l40.796 27.258v8.992l-43.085-33.06c-.798 1.04-1.63 2.05-2.493 3.033l44.456 38.988v11.02h-11.018l-38.987-44.457c-.983.865-1.995 1.695-3.033 2.494l33.06 43.085h-8.992l-27.26-40.797c-6.436 4.31-13.755 7.408-21.628 8.966l9.57 48.115-6.358 6.358-7.087-53.84c-1.29.168-2.595.296-3.91.38M459.615 300l-22.547 7.837-.487 23.864-14.42-19.02-22.845 6.913L412.948 300l-13.633-19.593 22.846 6.912 14.42-19.02.488 23.863L459.615 300M30 548.04l4.487-23.445L14.06 512.24l23.685-2.977 5.438-23.243 10.15 21.604 23.786-2.01-17.412 16.33 9.263 22-20.91-11.512L30 548.04M30 51.96L48.06 67.57l20.91-11.51-9.262 22 17.41 16.33-23.785-2.012-10.15 21.604-5.438-23.243L14.06 87.76l20.427-12.355L30 51.96" fill="#F7CD2B"/></g></svg>
